assets/img/braze_icons/corner-left-up.svg

<svg fill="none" height="24" viewBox="0 0 24 24" width="24" xmlns="http://www.w3.org/2000/svg"><path d="m8.70711 3.29289c-.39053-.39052-1.02369-.39052-1.41422 0l-5 5c-.39052.39053-.39052 1.02369 0 1.41422.39053.39049 1.02369.39049 1.41422 0l3.29289-3.2929v4.03019c-.00001 1.6426-.00001 2.9365.08507 3.9778.0868 1.0624.2671 1.9495.67789 2.7557.67111 1.3172 1.74197 2.388 3.05914 3.0591.8062.4108 1.6933.5911 2.7557.6779 1.0413.0851 2.3352.0851 3.9776.0851h3.4446c.5523 0 1-.4477 1-1s-.4477-1-1-1h-3.4c-1.6967 0-2.909-.0008-3.8594-.0784-.9386-.0767-1.5333-.2234-2.0106-.4666-.9408-.4793-1.7057-1.2442-2.18503-2.185-.24318-.4773-.38985-1.072-.46654-2.0106-.07765-.9504-.07843-2.1627-.07843-3.8594v-3.98579l3.2929 3.2929c.3905.39049 1.0237.39049 1.4142 0 .3905-.39053.3905-1.02369 0-1.41422z" fill="#801ed7"/></svg>

<svg width="24" height="24" viewBox="0 0 24 24" fill="none" xmlns="http://www.w3.org/2000/svg">
<path d="M8.70711 3.29289C8.31658 2.90237 7.68342 2.90237 7.29289 3.29289L2.29289 8.29289C1.90237 8.68342 1.90237 9.31658 2.29289 9.70711C2.68342 10.0976 3.31658 10.0976 3.70711 9.70711L7 6.41421L7 10.4444C6.99999 12.087 6.99999 13.3809 7.08507 14.4222C7.17187 15.4846 7.35217 16.3717 7.76296 17.1779C8.43407 18.4951 9.50493 19.5659 10.8221 20.237C11.6283 20.6478 12.5154 20.8281 13.5778 20.9149C14.6191 21 15.913 21 17.5554 21H21C21.5523 21 22 20.5523 22 20C22 19.4477 21.5523 19 21 19H17.6C15.9033 19 14.691 18.9992 13.7406 18.9216C12.802 18.8449 12.2073 18.6982 11.73 18.455C10.7892 17.9757 10.0243 17.2108 9.54497 16.27C9.30179 15.7927 9.15512 15.198 9.07843 14.2594C9.00078 13.309 9 12.0967 9 10.4L9 6.41421L12.2929 9.70711C12.6834 10.0976 13.3166 10.0976 13.7071 9.70711C14.0976 9.31658 14.0976 8.68342 13.7071 8.29289L8.70711 3.29289Z" fill="#801ED7"/>
</svg>
